X:117
T:Trip To Camberwell,A. HSJJ.119
M:2/4
L:1/8
Q:1/4=100
S:HSJ Jackson,Wyresdale,Lancs.1823
R:.Country-dance
O:England
A:Lancashire
H:1823
Z:vmp.Chris Partington.
K:F
Ac~cf|Bd~df|cAGF|EGGB|Ac~cf|Bdfd|cAGc|AFF:|!
|:a|gec’e|fdgf|” possible bar missing”ecc2|dBBd|cAfA|BGcB|AFF:|

